src/assets/icons/net-hi.svg

<svg fill="none" height="34" viewBox="0 0 90 34" width="90" xmlns="http://www.w3.org/2000/svg"><path d="m11.7925 0v32.578h3.8115v-23.56159c.0279-1.48272-.0279-2.9822-.1899-4.46492h.1452c.2765.71204.6255 1.39616 1.0332 2.0356l16.7539 25.97421h4.6688v-32.5613h-3.7948v22.9054c-.0446 1.6.0447 3.2.2318 4.7861h-.0866c-.2038-.3937-.6534-1.1197-1.3235-2.1808l-16.3044-25.50790655zm34.6723 0v32.578h17.3208l.0139-3.5769h-13.4394v-11.3006h11.7668v-3.4317h-11.7668v-10.82028h12.6241v-3.44572655zm20.2443 0v3.44573h9.3655v29.12947h3.8115v-29.12947h9.4688v-3.44573zm-64.28207 27.9232c-.63944.014-1.25096.2904-1.700521.7707-.466318.4663-.72600413 1.1197-.72600413 1.7899-.01396167.6702.26247813 1.3096.72600413 1.7899.463521.4803 1.119721.7567 1.789881.7427.68412 0 1.32356-.2624 1.78988-.7427.48028-.4663.75672-1.1197.75672-1.7899s-.27644-1.3236-.75672-1.7899c-.46632-.4942-1.10576-.7707-1.78988-.7707-.02792 0-.06143 0-.08936 0z" fill="#000"/></svg>

<svg width="90" height="34" viewBox="0 0 90 34" fill="none" xmlns="http://www.w3.org/2000/svg">
<path d="M11.7925 0V32.578H15.604V9.01641C15.6319 7.53369 15.5761 6.03421 15.4141 4.55149H15.5593C15.8358 5.26353 16.1848 5.94765 16.5925 6.58709L33.3464 32.5613H38.0152V0H34.2204V22.9054C34.1758 24.5054 34.2651 26.1054 34.4522 27.6915H34.3656C34.1618 27.2978 33.7122 26.5718 33.0421 25.5107L16.7377 0.00279345L11.7925 0ZM46.4648 0V32.578H63.7856L63.7995 29.0011H50.3601V17.7005H62.1269V14.2688H50.3601V3.44852H62.9842V0.00279345L46.4648 0ZM66.7091 0V3.44573H76.0746V32.5752H79.8861V3.44573H89.3549V0H66.7091ZM2.42703 27.9232C1.78759 27.9372 1.17607 28.2136 0.726509 28.6939C0.260191 29.1602 0.000504868 29.8136 0.000504868 30.4838C-0.0134568 31.154 0.262983 31.7934 0.726509 32.2737C1.19003 32.754 1.84623 33.0304 2.51639 33.0164C3.20051 33.0164 3.83995 32.754 4.30627 32.2737C4.78655 31.8074 5.06299 31.154 5.06299 30.4838C5.06299 29.8136 4.78655 29.1602 4.30627 28.6939C3.83995 28.1997 3.20051 27.9232 2.51639 27.9232C2.48847 27.9232 2.45496 27.9232 2.42703 27.9232Z" fill="black"/>
</svg>
